resources/svg/women-line.svg

<svg fill="currentColor" viewBox="0 0 24 24" xmlns="http://www.w3.org/2000/svg"><path d="M11 15.9339C7.33064 15.445 4.5 12.3031 4.5 8.5C4.5 4.35786 7.85786 1 12 1C16.1421 1 19.5 4.35786 19.5 8.5C19.5 12.3031 16.6694 15.445 13 15.9339V18H18V20H13V24H11V20H6V18H11V15.9339ZM12 14C15.0376 14 17.5 11.5376 17.5 8.5C17.5 5.46243 15.0376 3 12 3C8.96243 3 6.5 5.46243 6.5 8.5C6.5 11.5376 8.96243 14 12 14Z"/></svg>

<svg xmlns="http://www.w3.org/2000/svg" viewBox="0 0 24 24" fill="currentColor">
    <g>
        <path fill="none" d="M0 0h24v24H0z"/>
        <path d="M11 15.934A7.501 7.501 0 0 1 12 1a7.5 7.5 0 0 1 1 14.934V18h5v2h-5v4h-2v-4H6v-2h5v-2.066zM12 14a5.5 5.5 0 1 0 0-11 5.5 5.5 0 0 0 0 11z"/>
    </g>
</svg>
